goodies/eudoxus-sans/Eudoxus-Sans-Font-example-typeface.svg

<svg xmlns="http://www.w3.org/2000/svg" width="337" height="138" viewBox="0 0 337 138">
  <g fill="none" fill-rule="evenodd" transform="translate(34.5 37)">
    <path stroke="#18272F" stroke-width="10.213" d="M266.303267,4 L64.7963353,4 C56.7287513,4 49.5408034,9.09479745 46.8687456,16.7070256 L36.8344551,45.2929744 C34.1623973,52.9052026 26.9744493,58 18.9068654,58 L0,58 L0,58"/>
    <path fill="#FFF" fill-rule="nonzero" d="M55.8829175,63 L58.9329175,53.728 L75.5859175,53.728 L78.6359175,63 L88.9449175,63 L73.5729175,17.555 L61.0069175,17.555 L45.6349175,63 L55.8829175,63 Z M72.9629175,45.493 L61.5559175,45.493 L67.2839175,27.961 L72.9629175,45.493 Z M102.12059,75.2 L102.119918,60.433 L102.21331,60.51852 C102.989772,61.2082267 103.879017,61.7938267 104.881043,62.27532 L105.26209,62.451 C107.193757,63.305 109.31859,63.732 111.63659,63.732 C114.849257,63.732 117.746757,62.9593333 120.32909,61.414 C122.911423,59.8686667 124.944757,57.7743333 126.42909,55.131 C127.913423,52.4876667 128.65559,49.5596667 128.65559,46.347 C128.65559,43.1343333 127.903257,40.2063333 126.39859,37.563 C124.893923,34.9196667 122.850423,32.8253333 120.26809,31.28 C117.685757,29.7346667 114.828923,28.962 111.69759,28.962 C109.25759,28.962 107.09209,29.4195 105.20109,30.3345 C103.814357,31.0055 102.640852,31.8787941 101.680577,32.9543822 L101.509918,33.153 L101.51059,29.694 L92.9705899,29.694 L92.9705899,75.2 L102.12059,75.2 Z M110.53859,55.497 C108.911923,55.497 107.45809,55.1106667 106.17709,54.338 C104.89609,53.5653333 103.899757,52.4876667 103.18809,51.105 C102.476423,49.7223333 102.12059,48.1363333 102.12059,46.347 C102.12059,44.5983333 102.476423,43.0225 103.18809,41.6195 C103.899757,40.2165 104.89609,39.1286667 106.17709,38.356 C107.45809,37.5833333 108.911923,37.197 110.53859,37.197 C112.205923,37.197 113.700423,37.5935 115.02209,38.3865 C116.343757,39.1795 117.37059,40.2673333 118.10259,41.65 C118.83459,43.0326667 119.20059,44.5983333 119.20059,46.347 C119.20059,48.0956667 118.83459,49.6715 118.10259,51.0745 C117.37059,52.4775 116.343757,53.5653333 115.02209,54.338 C113.700423,55.1106667 112.205923,55.497 110.53859,55.497 Z M143.172912,75.2 L143.171918,60.433 L143.265632,60.51852 C144.042094,61.2082267 144.931339,61.7938267 145.933366,62.27532 L146.314412,62.451 C148.246079,63.305 150.370912,63.732 152.688912,63.732 C155.901579,63.732 158.799079,62.9593333 161.381412,61.414 C163.963746,59.8686667 165.997079,57.7743333 167.481412,55.131 C168.965746,52.4876667 169.707912,49.5596667 169.707912,46.347 C169.707912,43.1343333 168.955579,40.2063333 167.450912,37.563 C165.946246,34.9196667 163.902746,32.8253333 161.320412,31.28 C158.738079,29.7346667 155.881246,28.962 152.749912,28.962 C150.309912,28.962 148.144412,29.4195 146.253412,30.3345 C144.866679,31.0055 143.693174,31.8787941 142.732899,32.9543822 L142.561918,33.153 L142.562912,29.694 L134.022912,29.694 L134.022912,75.2 L143.172912,75.2 Z M151.590912,55.497 C149.964246,55.497 148.510412,55.1106667 147.229412,54.338 C145.948412,53.5653333 144.952079,52.4876667 144.240412,51.105 C143.528746,49.7223333 143.172912,48.1363333 143.172912,46.347 C143.172912,44.5983333 143.528746,43.0225 144.240412,41.6195 C144.952079,40.2165 145.948412,39.1286667 147.229412,38.356 C148.510412,37.5833333 149.964246,37.197 151.590912,37.197 C153.258246,37.197 154.752746,37.5935 156.074412,38.3865 C157.396079,39.1795 158.422912,40.2673333 159.154912,41.65 C159.886912,43.0326667 160.252912,44.5983333 160.252912,46.347 C160.252912,48.0956667 159.886912,49.6715 159.154912,51.0745 C158.422912,52.4775 157.396079,53.5653333 156.074412,54.338 C154.752746,55.1106667 153.258246,55.497 151.590912,55.497 Z M191.606235,63.732 C194.859568,63.732 197.848568,62.9796667 200.573235,61.475 C203.297901,59.9703333 205.453235,57.8963333 207.039235,55.253 C208.625235,52.6096667 209.418235,49.641 209.418235,46.347 C209.418235,43.053 208.625235,40.0843333 207.039235,37.441 C205.453235,34.7976667 203.297901,32.7236667 200.573235,31.219 C197.848568,29.7143333 194.859568,28.962 191.606235,28.962 C188.352901,28.962 185.353735,29.7143333 182.608735,31.219 C179.863735,32.7236667 177.698235,34.7976667 176.112235,37.441 C174.526235,40.0843333 173.733235,43.053 173.733235,46.347 C173.733235,49.641 174.526235,52.6096667 176.112235,55.253 C177.698235,57.8963333 179.863735,59.9703333 182.608735,61.475 C185.353735,62.9796667 188.352901,63.732 191.606235,63.732 Z M191.606235,55.497 C189.979568,55.497 188.525735,55.1106667 187.244735,54.338 C185.963735,53.5653333 184.967401,52.4876667 184.255735,51.105 C183.544068,49.7223333 183.188235,48.1363333 183.188235,46.347 C183.188235,44.5983333 183.544068,43.0326667 184.255735,41.65 C184.967401,40.2673333 185.963735,39.1795 187.244735,38.3865 C188.525735,37.5935 189.979568,37.197 191.606235,37.197 C193.232901,37.197 194.676568,37.5935 195.937235,38.3865 C197.197901,39.1795 198.184068,40.2673333 198.895735,41.65 C199.607401,43.0326667 199.963235,44.5983333 199.963235,46.347 C199.963235,48.1363333 199.607401,49.7223333 198.895735,51.105 C198.184068,52.4876667 197.197901,53.5653333 195.937235,54.338 C194.676568,55.1106667 193.232901,55.497 191.606235,55.497 Z M223.935363,63 L223.935363,16.823 L214.785363,16.823 L214.785363,63 L223.935363,63 Z M247.176028,63.732 C250.429362,63.732 253.418362,62.9796667 256.143028,61.475 C258.867695,59.9703333 261.023028,57.8963333 262.609028,55.253 C264.195028,52.6096667 264.988028,49.641 264.988028,46.347 C264.988028,43.053 264.195028,40.0843333 262.609028,37.441 C261.023028,34.7976667 258.867695,32.7236667 256.143028,31.219 C253.418362,29.7143333 250.429362,28.962 247.176028,28.962 C243.922695,28.962 240.923528,29.7143333 238.178528,31.219 C235.433528,32.7236667 233.268028,34.7976667 231.682028,37.441 C230.096028,40.0843333 229.303028,43.053 229.303028,46.347 C229.303028,49.641 230.096028,52.6096667 231.682028,55.253 C233.268028,57.8963333 235.433528,59.9703333 238.178528,61.475 C240.923528,62.9796667 243.922695,63.732 247.176028,63.732 Z M247.176028,55.497 C245.549362,55.497 244.095528,55.1106667 242.814528,54.338 C241.533528,53.5653333 240.537195,52.4876667 239.825528,51.105 C239.113862,49.7223333 238.758028,48.1363333 238.758028,46.347 C238.758028,44.5983333 239.113862,43.0326667 239.825528,41.65 C240.537195,40.2673333 241.533528,39.1795 242.814528,38.3865 C244.095528,37.5935 245.549362,37.197 247.176028,37.197 C248.802695,37.197 250.246362,37.5935 251.507028,38.3865 C252.767695,39.1795 253.753862,40.2673333 254.465528,41.65 C255.177195,43.0326667 255.533028,44.5983333 255.533028,46.347 C255.533028,48.1363333 255.177195,49.7223333 254.465528,51.105 C253.753862,52.4876667 252.767695,53.5653333 251.507028,54.338 C250.246362,55.1106667 248.802695,55.497 247.176028,55.497 Z"/>
    <circle cx="12.513" cy="35.014" r="12.464" fill="#FFCA00"/>
  </g>
</svg>

<svg xmlns="http://www.w3.org/2000/svg" width="337" height="138" viewBox="0 0 337 138"><g fill="none" fill-rule="evenodd" transform="translate(34.5 37)"><path stroke="#18272F" stroke-width="10.213" d="M266.303 4H64.796A19 19 0 0 0 46.87 16.707L36.834 45.293A19 19 0 0 1 18.907 58H0h0"/><path fill="#FFF" fill-rule="nonzero" d="M55.883 63l3.05-9.272h16.653L78.636 63h10.309L73.573 17.555H61.007L45.635 63h10.248zm17.08-17.507H61.556l5.728-17.532 5.679 17.532zM102.12 75.2l-.001-14.767.093.086c.777.69 1.666 1.275 2.668 1.756l.381.176c1.932.854 4.057 1.281 6.375 1.281 3.212 0 6.11-.773 8.692-2.318s4.616-3.64 6.1-6.283c1.484-2.643 2.227-5.571 2.227-8.784 0-3.213-.753-6.14-2.257-8.784-1.505-2.643-3.549-4.738-6.13-6.283-2.583-1.545-5.44-2.318-8.571-2.318-2.44 0-4.606.457-6.497 1.372-1.387.672-2.56 1.545-3.52 2.62l-.171.199v-3.459h-8.54V75.2h9.15zm8.418-19.703c-1.627 0-3.08-.386-4.362-1.159-1.28-.773-2.277-1.85-2.989-3.233-.712-1.383-1.067-2.969-1.067-4.758 0-1.749.355-3.325 1.067-4.727.712-1.403 1.708-2.491 2.99-3.264 1.28-.773 2.734-1.159 4.36-1.159 1.668 0 3.162.396 4.484 1.19a8.21 8.21 0 0 1 3.08 3.263c.733 1.383 1.099 2.948 1.099 4.697s-.366 3.325-1.098 4.727c-.732 1.404-1.76 2.491-3.08 3.264-1.323.773-2.817 1.159-4.484 1.159zM143.173 75.2l-.001-14.767.094.086c.776.69 1.665 1.275 2.667 1.756l.381.176c1.932.854 4.057 1.281 6.375 1.281 3.213 0 6.11-.773 8.692-2.318 2.583-1.545 4.616-3.64 6.1-6.283 1.485-2.643 2.227-5.571 2.227-8.784 0-3.213-.752-6.14-2.257-8.784-1.505-2.643-3.548-4.738-6.13-6.283-2.583-1.545-5.44-2.318-8.571-2.318-2.44 0-4.606.457-6.497 1.372-1.386.672-2.56 1.545-3.52 2.62l-.171.199v-3.459h-8.54V75.2h9.15zm8.418-19.703c-1.627 0-3.08-.386-4.362-1.159-1.28-.773-2.277-1.85-2.989-3.233-.711-1.383-1.067-2.969-1.067-4.758 0-1.749.356-3.325 1.067-4.727.712-1.403 1.708-2.491 2.99-3.264 1.28-.773 2.734-1.159 4.36-1.159 1.668 0 3.163.396 4.484 1.19a8.21 8.21 0 0 1 3.08 3.263c.733 1.383 1.099 2.948 1.099 4.697s-.366 3.325-1.098 4.727c-.732 1.404-1.759 2.491-3.08 3.264-1.322.773-2.817 1.159-4.484 1.159zm40.015 8.235c3.254 0 6.243-.752 8.967-2.257 2.725-1.505 4.88-3.579 6.466-6.222 1.586-2.643 2.38-5.612 2.38-8.906 0-3.294-.794-6.263-2.38-8.906-1.586-2.643-3.741-4.717-6.466-6.222-2.724-1.505-5.713-2.257-8.967-2.257-3.253 0-6.252.752-8.997 2.257-2.745 1.505-4.91 3.579-6.497 6.222-1.586 2.643-2.379 5.612-2.379 8.906 0 3.294.793 6.263 2.38 8.906 1.585 2.643 3.75 4.717 6.496 6.222 2.745 1.505 5.744 2.257 8.997 2.257zm0-8.235c-1.626 0-3.08-.386-4.361-1.159-1.281-.773-2.278-1.85-2.99-3.233-.71-1.383-1.067-2.969-1.067-4.758 0-1.749.356-3.314 1.068-4.697.711-1.383 1.708-2.47 2.989-3.264 1.28-.793 2.735-1.189 4.361-1.189 1.627 0 3.07.396 4.331 1.19 1.26.792 2.247 1.88 2.959 3.263.711 1.383 1.067 2.948 1.067 4.697 0 1.79-.356 3.375-1.067 4.758-.712 1.383-1.698 2.46-2.959 3.233-1.26.773-2.704 1.159-4.33 1.159zM223.936 63V16.823h-9.15V63h9.15zm23.24.732c3.253 0 6.242-.752 8.967-2.257 2.725-1.505 4.88-3.579 6.466-6.222 1.586-2.643 2.379-5.612 2.379-8.906 0-3.294-.793-6.263-2.379-8.906-1.586-2.643-3.741-4.717-6.466-6.222-2.725-1.505-5.714-2.257-8.967-2.257s-6.252.752-8.997 2.257c-2.745 1.505-4.911 3.579-6.497 6.222-1.586 2.643-2.379 5.612-2.379 8.906 0 3.294.793 6.263 2.379 8.906 1.586 2.643 3.752 4.717 6.497 6.222 2.745 1.505 5.744 2.257 8.997 2.257zm0-8.235c-1.627 0-3.08-.386-4.361-1.159-1.281-.773-2.278-1.85-2.99-3.233-.711-1.383-1.067-2.969-1.067-4.758 0-1.749.356-3.314 1.068-4.697.711-1.383 1.708-2.47 2.989-3.264 1.28-.793 2.734-1.189 4.361-1.189 1.627 0 3.07.396 4.331 1.19 1.26.792 2.247 1.88 2.959 3.263.711 1.383 1.067 2.948 1.067 4.697 0 1.79-.356 3.375-1.067 4.758-.712 1.383-1.698 2.46-2.959 3.233-1.26.773-2.704 1.159-4.331 1.159z"/><circle cx="12.513" cy="35.014" r="12.464" fill="#FFCA00"/></g></svg>
